Papirus/22x22/apps/musescore.svg

<svg width="22" height="22" version="1.1" xmlns="http://www.w3.org/2000/svg">
 <rect x="1" y="1.5" width="20" height="20" rx="4.9710984" style="opacity:.2"/>
 <rect x="1" y="1" width="20" height="20" rx="4.9710979" style="fill:#4242ac"/>
 <path d="m11.310547 4.5c-2.656961 0-4.810547 2.0819847-4.810547 4.6503906 0 0.4693316 0.07131 0.9224934 0.205078 1.3496094h3.294922c-0.592565-0.5663843-0.914063-1.3711325-0.914062-2.2636719 0-1.7147971 1.367507-3.1054687 3.052734-3.1054687 0.693409 0 1.333206 0.2362765 1.845703 0.6328125-0.02077-1.545e-4 -0.04173 0-0.0625 0-0.871917-2.137e-4 -1.579886 0.7062083-1.580078 1.578125-2.13e-4 0.8722024 0.707876 1.5783395 1.580078 1.578125 0.871915-1.924e-4 1.57834-0.7062099 1.578125-1.578125 0-0.528036-0.237367-0.8596613-0.408203-1.0664063-0.888182-1.0748848-2.24725-1.7753906-3.78125-1.7753906zm-0.595703 6-2.572266 2h3.142578l2.572266-2zm1.285156 2c0.592565 0.566384 0.914063 1.371133 0.914062 2.263672 0 1.714797-1.367507 3.105469-3.052734 3.105469-0.693409 0-1.333206-0.236277-1.845703-0.632813 0.02077 1.55e-4 0.04173 0 0.0625 0 0.871917 2.14e-4 1.579886-0.706208 1.580078-1.578125 2.13e-4 -0.872202-0.707876-1.578339-1.580078-1.578125-0.871915 1.92e-4 -1.57834 0.70621-1.578125 1.578125 0 0.528036 0.237367 0.859661 0.408203 1.066406 0.888182 1.074885 2.24725 1.775391 3.78125 1.775391 2.656961 0 4.810547-2.081985 4.810547-4.650391 0-0.469331-0.071307-0.922493-0.205078-1.349609z" style="opacity:.2"/>
 <path d="m11.310547 4c-2.656961 0-4.810547 2.0819847-4.810547 4.6503906 0 0.4693316 0.071307 0.9224937 0.205078 1.3496094h3.294922c-0.592565-0.5663843-0.914063-1.3711325-0.914062-2.2636719 0-1.7147971 1.367507-3.1054687 3.052734-3.1054687 0.693409 0 1.333206 0.2362765 1.845703 0.6328125-0.02077-1.545e-4 -0.04173 0-0.0625 0-0.871917-2.137e-4 -1.579886 0.7062083-1.580078 1.578125-2.13e-4 0.8722024 0.707876 1.5783395 1.580078 1.578125 0.871915-1.924e-4 1.57834-0.7062099 1.578125-1.578125 0-0.528036-0.237367-0.8596613-0.408203-1.0664063-0.888182-1.0748848-2.24725-1.7753906-3.78125-1.7753906zm-0.595703 6-2.572266 2h3.142578l2.572266-2zm1.285156 2c0.592565 0.566384 0.914063 1.371133 0.914062 2.263672 0 1.714797-1.367507 3.105469-3.052734 3.105469-0.693409 0-1.333206-0.236277-1.845703-0.632813 0.02077 1.55e-4 0.04173 0 0.0625 0 0.871917 2.14e-4 1.579886-0.706208 1.580078-1.578125 2.13e-4 -0.872202-0.707876-1.578339-1.580078-1.578125-0.871915 1.93e-4 -1.57834 0.70621-1.578125 1.578125 0 0.528036 0.237367 0.859661 0.408203 1.066406 0.888182 1.074885 2.24725 1.775391 3.78125 1.775391 2.656961 0 4.810547-2.081985 4.810547-4.650391 0-0.469331-0.071307-0.922493-0.205078-1.349609z" style="fill:#0ae1ee"/>
 <path d="m11.310547 4c-2.656961 0-4.810547 2.0819847-4.810547 4.6503906 0 0.08396 0.0013 0.1671316 0.0059 0.25 0.134013-2.4524701 2.234258-4.4003906 4.804688-4.4003906 0.435265 0 0.855523 0.056762 1.255859 0.1621094 0.527598 0.075696 1.01299 0.2882171 1.417969 0.6015625-0.01287-9.57e-5 -0.02614-3.13e-5 -0.03906 0 0.435173 0.2766964 0.822353 0.6194523 1.146485 1.0117187 0.141771 0.1715711 0.328945 0.4280429 0.388672 0.8125 0.0126-0.080408 0.01955-0.162126 0.01953-0.2460937 0-0.528036-0.237367-0.8596613-0.408203-1.0664063-0.888225-1.0748848-2.247293-1.7753906-3.781293-1.7753906zm2.021484 1.3769531c-0.580084 0.2334378-0.990088 0.8014355-0.990234 1.4648438-2.1e-5 0.085138 0.0066 0.1685291 0.01953 0.25 0.119913-0.7533186 0.773513-1.3283179 1.560547-1.328125 0.02077 0 0.04173-1.545e-4 0.0625 0-0.199625-0.1544562-0.418446-0.2853844-0.652343-0.3867188zm-4.236328 2.6171875c-6e-3 0.07969-0.0098 0.1609283-0.0098 0.2421876-1e-6 0.6551798 0.17347 1.262663 0.5 1.7636718h0.414062c-0.534822-0.5112257-0.848173-1.216965-0.904262-2.0058594zm1.619141 2.0058594-2.572266 2h0.642578l1.929688-1.5h2.5l0.642578-0.5zm1.285156 2c0.157585 0.150623 0.295767 0.318494 0.414062 0.5h2.88086c0.109838 0.350708 0.178502 0.719248 0.199219 1.099609 0.0045-0.08256 0.0059-0.166353 0.0059-0.25 0-0.469331-0.07131-0.922493-0.205078-1.349609zm-3.921875 1.580078c-0.871915 1.93e-4 -1.57834 0.70621-1.578125 1.578125 0 0.08984 0.0073 0.173135 0.01953 0.251953 0.118266-0.754546 0.770647-1.329903 1.558594-1.330078 0.787064-1.93e-4 1.440637 0.574962 1.560547 1.328125 0.01293-0.08125 0.01951-0.165117 0.01953-0.25 2.13e-4 -0.872202-0.707876-1.578339-1.580078-1.578125zm4.826172 0.925781c-0.121217 1.601994-1.4376 2.863281-3.042969 2.863281-0.423317 0-0.82677-0.08727-1.193359-0.246093-0.18232 0.07337-0.381336 0.113332-0.589844 0.113281-0.0079 0-0.0155-2e-5 -0.02344 0 0.418927 0.266368 0.883235 0.471127 1.378906 0.601562 0.140075 0.0201 0.282259 0.03125 0.427734 0.03125 1.685227 0 3.052734-1.390672 3.052734-3.105468 1e-6 -0.08692-0.0037-0.172695-0.0098-0.257813z" style="fill:#ffffff;opacity:.2"/>
 <path d="M 5.970703,1 C 3.216715,1 1,3.216715 1,5.970703 v 0.5 C 1,3.716715 3.216715,1.5 5.970703,1.5 H 16.029297 C 18.783285,1.5 21,3.716715 21,6.470703 v -0.5 C 21,3.216715 18.783285,1 16.029297,1 Z" style="fill:#ffffff;opacity:.1"/>
</svg>

<?xml version="1.0" encoding="UTF-8" standalone="no"?>
<svg
   width="22"
   height="22"
   version="1.1"
   id="svg7"
   sodipodi:docname="musescore.svg"
   inkscape:version="1.4.3 (0d15f75042, 2025-12-25)"
   xmlns:inkscape="http://www.inkscape.org/namespaces/inkscape"
   xmlns:sodipodi="http://sodipodi.sourceforge.net/DTD/sodipodi-0.dtd"
   xmlns="http://www.w3.org/2000/svg"
   xmlns:svg="http://www.w3.org/2000/svg">
  <defs
     id="defs7" />
  <sodipodi:namedview
     id="namedview7"
     pagecolor="#ffffff"
     bordercolor="#000000"
     borderopacity="0.25"
     inkscape:showpageshadow="2"
     inkscape:pageopacity="0.0"
     inkscape:pagecheckerboard="0"
     inkscape:deskcolor="#d1d1d1"
     showgrid="true"
     inkscape:zoom="22.627417"
     inkscape:cx="-2.1876116"
     inkscape:cy="10.032077"
     inkscape:window-width="2560"
     inkscape:window-height="1011"
     inkscape:window-x="0"
     inkscape:window-y="0"
     inkscape:window-maximized="1"
     inkscape:current-layer="svg7">
    <inkscape:grid
       id="grid7"
       units="px"
       originx="0"
       originy="0"
       spacingx="1"
       spacingy="1"
       empcolor="#0099e5"
       empopacity="0.30196078"
       color="#0099e5"
       opacity="0.14901961"
       empspacing="5"
       enabled="true"
       visible="true" />
  </sodipodi:namedview>
  <rect
     x="1"
     y="1.5"
     width="20"
     height="20"
     rx="4.9710984"
     style="opacity:0.2"
     id="rect1-2" />
  <rect
     x="1"
     y="1"
     width="20"
     height="20"
     rx="4.9710979"
     style="fill:#4242ac;fill-opacity:1;stroke-width:0.357143"
     id="rect2-6" />
  <path
     id="path8-2"
     style="opacity:0.2;fill-opacity:1;stroke:none;stroke-width:1.01334;stroke-linecap:square;stroke-linejoin:bevel"
     d="M 11.310547,4.5 C 8.653586,4.5 6.5,6.5819847 6.5,9.1503906 6.5,9.6197222 6.57131,10.072884 6.705078,10.5 H 10 C 9.407435,9.9336157 9.085937,9.1288675 9.085938,8.2363281 c 0,-1.7147971 1.367507,-3.1054687 3.052734,-3.1054687 0.693409,0 1.333206,0.2362765 1.845703,0.6328125 -0.02077,-1.545e-4 -0.04173,0 -0.0625,0 -0.871917,-2.137e-4 -1.579886,0.7062083 -1.580078,1.578125 -2.13e-4,0.8722024 0.707876,1.5783395 1.580078,1.578125 C 14.79379,8.9197295 15.500215,8.213712 15.5,7.3417969 15.5,6.8137609 15.262633,6.4821356 15.091797,6.2753906 14.203615,5.2005058 12.844547,4.5 11.310547,4.5 Z m -0.595703,6 -2.572266,2 h 3.142578 l 2.572266,-2 z M 12,12.5 c 0.592565,0.566384 0.914063,1.371133 0.914062,2.263672 0,1.714797 -1.367507,3.105469 -3.052734,3.105469 -0.693409,0 -1.333206,-0.236277 -1.845703,-0.632813 0.02077,1.55e-4 0.04173,0 0.0625,0 0.871917,2.14e-4 1.579886,-0.706208 1.580078,-1.578125 C 9.658416,14.786001 8.950327,14.079864 8.078125,14.080078 7.20621,14.08027 6.499785,14.786288 6.5,15.658203 c 0,0.528036 0.237367,0.859661 0.408203,1.066406 C 7.796385,17.799494 9.155453,18.5 10.689453,18.5 13.346414,18.5 15.5,16.418015 15.5,13.849609 15.5,13.380278 15.428693,12.927116 15.294922,12.5 Z" />
  <path
     id="path8"
     style="fill:#0ae1ee;fill-opacity:1;stroke:none;stroke-width:1.01334;stroke-linecap:square;stroke-linejoin:bevel"
     d="M 11.310547,4 C 8.653586,4 6.5,6.0819847 6.5,8.6503906 6.5,9.1197222 6.571307,9.5728843 6.705078,10 H 10 C 9.407435,9.4336157 9.085937,8.6288675 9.085938,7.7363281 c 0,-1.7147971 1.367507,-3.1054687 3.052734,-3.1054687 0.693409,0 1.333206,0.2362765 1.845703,0.6328125 -0.02077,-1.545e-4 -0.04173,0 -0.0625,0 -0.871917,-2.137e-4 -1.579886,0.7062083 -1.580078,1.578125 -2.13e-4,0.8722024 0.707876,1.5783395 1.580078,1.578125 C 14.79379,8.4197295 15.500215,7.713712 15.5,6.8417969 15.5,6.3137609 15.262633,5.9821356 15.091797,5.7753906 14.203615,4.7005058 12.844547,4 11.310547,4 Z m -0.595703,6 -2.572266,2 h 3.142578 l 2.572266,-2 z M 12,12 c 0.592565,0.566384 0.914063,1.371133 0.914062,2.263672 0,1.714797 -1.367507,3.105469 -3.052734,3.105469 -0.693409,0 -1.333206,-0.236277 -1.845703,-0.632813 0.02077,1.55e-4 0.04173,0 0.0625,0 0.871917,2.14e-4 1.579886,-0.706208 1.580078,-1.578125 2.13e-4,-0.872202 -0.707876,-1.578339 -1.580078,-1.578125 -0.871915,1.93e-4 -1.57834,0.70621 -1.578125,1.578125 0,0.528036 0.237367,0.859661 0.408203,1.066406 C 7.796385,17.299494 9.155453,18 10.689453,18 13.346414,18 15.5,15.918015 15.5,13.349609 15.5,12.880278 15.428693,12.427116 15.294922,12 Z" />
  <path
     id="path8-3"
     style="opacity:0.2;fill:#ffffff;fill-opacity:1;stroke:none;stroke-width:1.01334;stroke-linecap:square;stroke-linejoin:bevel"
     d="M 11.310547,4 C 8.653586,4 6.5,6.0819847 6.5,8.6503906 c 0,0.08396 0.0013,0.1671316 0.0059,0.25 C 6.639913,6.4479205 8.740158,4.5 11.310588,4.5 c 0.435265,0 0.855523,0.056762 1.255859,0.1621094 0.527598,0.075696 1.01299,0.2882171 1.417969,0.6015625 -0.01287,-9.57e-5 -0.02614,-3.13e-5 -0.03906,0 0.435173,0.2766964 0.822353,0.6194523 1.146485,1.0117187 0.141771,0.1715711 0.328945,0.4280429 0.388672,0.8125 0.0126,-0.080408 0.01955,-0.162126 0.01953,-0.2460937 0,-0.528036 -0.237367,-0.8596613 -0.408203,-1.0664063 C 14.203615,4.7005058 12.844547,4 11.310547,4 Z m 2.021484,1.3769531 c -0.580084,0.2334378 -0.990088,0.8014355 -0.990234,1.4648438 -2.1e-5,0.085138 0.0066,0.1685291 0.01953,0.25 0.119913,-0.7533186 0.773513,-1.3283179 1.560547,-1.328125 0.02077,0 0.04173,-1.545e-4 0.0625,0 C 13.784749,5.6092157 13.565928,5.4782875 13.332031,5.3769531 Z M 9.095703,7.9941406 c -0.006,0.07969 -0.0098,0.1609283 -0.0098,0.2421876 -10e-7,0.6551798 0.17347,1.262663 0.5,1.7636718 H 9.999965 C 9.465143,9.4887743 9.151792,8.783035 9.095703,7.9941406 Z M 10.714844,10 8.142578,12 h 0.642578 l 1.929688,-1.5 h 2.5 L 13.857422,10 Z M 12,12 c 0.157585,0.150623 0.295767,0.318494 0.414062,0.5 h 2.88086 c 0.109838,0.350708 0.178502,0.719248 0.199219,1.099609 0.0045,-0.08256 0.0059,-0.166353 0.0059,-0.25 0,-0.469331 -0.07131,-0.922493 -0.205078,-1.349609 z M 8.078125,13.580078 C 7.20621,13.580271 6.499785,14.286288 6.5,15.158203 c 0,0.08984 0.0073,0.173135 0.01953,0.251953 0.118266,-0.754546 0.770647,-1.329903 1.558594,-1.330078 0.787064,-1.93e-4 1.440637,0.574962 1.560547,1.328125 0.01293,-0.08125 0.01951,-0.165117 0.01953,-0.25 2.13e-4,-0.872202 -0.707876,-1.578339 -1.580078,-1.578125 z m 4.826172,0.925781 c -0.121217,1.601994 -1.4376,2.863281 -3.042969,2.863281 -0.423317,0 -0.82677,-0.08727 -1.193359,-0.246093 -0.18232,0.07337 -0.381336,0.113332 -0.589844,0.113281 -0.0079,0 -0.0155,-2e-5 -0.02344,0 0.418927,0.266368 0.883235,0.471127 1.378906,0.601562 0.140075,0.0201 0.282259,0.03125 0.427734,0.03125 1.685227,0 3.052734,-1.390672 3.052734,-3.105468 10e-7,-0.08692 -0.0037,-0.172695 -0.0098,-0.257813 z" />
  <path
     d="M 5.970703,1 C 3.216715,1 1,3.216715 1,5.970703 v 0.5 C 1,3.716715 3.216715,1.5 5.970703,1.5 H 16.029297 C 18.783285,1.5 21,3.716715 21,6.470703 v -0.5 C 21,3.216715 18.783285,1 16.029297,1 Z"
     style="opacity:0.1;fill:#ffffff"
     id="path6-0" />
</svg>
